!!!!SEGMENT: pl-wtm--r-1350--009_stefani-jozef--fraszka-muzyczna-tarantelle.krn
!!!cenid: 18xx:1858
!!!COM: Stefani, Józef
!!!COM-rismID:
!!!CDT: 1800/04/16-1876/03/19
!!!CNT: Polish
!!!GTL: Fraszka muzyczna
!!!OTL: Tarantelle
!!!PDT:
!!!AGN: Secular
!!!SMS-siglum: PL-Wtm
!!!SMS-shelfmark: R 1350
!!!SMS-shelfwork: 009 G
!!!SMS-variant:
!!!SMS-altvar:
!!!NIFC-rismSourceID: 1001119470
!!!NIFC-islandoraID: pl-wtm:25286
!!!URL-pdf-islandora: https://repozytorium.nifc.pl/islandora/object/pl-wtm%3A25286/datastream/PDF/view
!!!URL-scan: https://polish.musicsources.pl/pl/lokalizacje/galeria/rekopisy/6202 @EN{Scan on Polish Music Herritage in Open Access Website} @PL{Skany w portalu Dziedzictwo Muzyki Polskiej w otwartym dostępie}
!!!ONB-nifc: UWAGA: skan 0005-0006.
!!!AIN: 1 forte
!!!key:
**kern	**fing	**kern	**fing	**dynam
*part1	*	*part1	*	*part1
*staff2	*	*staff1	*	*
*Iforte	*	*Iforte	*	*
*I"Fortepiano	*	*I"Fortepiano	*	*
*I'pf	*	*I'pf	*	*
*clefG2	*	*clefG2	*	*
*k[]	*	*k[]	*	*
*C:	*	*C:	*	*
*M2/4	*	*M2/4	*	*
=1	=1	=1	=1	=1
*	*below	*Xtuplet	*	*
!	!	!LO:TX:i:a:t=Tarentelle Allegro	!	!LO:DY:b:rj
!LO:TX:a:t=P:global:problem=palcowanie przy akordach z lewej strony	!	!LO:TX:a:t=P:all\right:problem	!	!
4g 4e 4c/	5 3 1	(>12cc\L	1	f
.	.	12dd\	.	.
.	.	12ee\J)	.	.
4g 4e 4c/	.	(>12ee\L	.	.
.	.	12dd\	.	.
.	.	12cc\J)	.	.
=2	=2	=2	=2	=2
4g 4f 4B/	5 2 1	(>12dd\L	2	.
.	.	12ee\	.	.
.	.	12ff\J)	.	.
4g 4f 4B/	.	(>12ff\L	.	.
.	.	12ee\	.	.
.	.	12dd\J)	.	.
=3	=3	=3	=3	=3
4g 4e 4c/	.	(>12cc\L	1	.
.	.	12dd\	.	.
.	.	12ee\J)	.	.
4g 4e 4c/	.	(>12ee\L	.	.
.	.	12dd\	.	.
.	.	12cc\J)	.	.
!!LO:LB:g=original
=4	=4	=4	=4	=4
4g 4f 4B/	.	(>12dd\L	3	.
.	.	12cc#X\	2	.
.	.	12ee\J)	4	.
4g 4f 4B/	.	4dd\	3	.
=5	=5	=5	=5	=5
4g 4e 4c/	.	(>12ccn\L	1	.
.	.	12dd\	.	.
.	.	12ee\J)	.	.
4g 4e 4c/	.	(>12ee\L	.	.
.	.	12dd\	.	.
.	.	12cc\J)	.	.
=6	=6	=6	=6	=6
4g 4f 4B/	.	(>12dd\L	.	.
.	.	12ee\	.	.
.	.	12ff\J)	.	.
4g 4f 4B/	.	(>12ff\L	.	.
.	.	12ee\	.	.
.	.	12dd\J)	.	.
=7	=7	=7	=7	=7
4g 4e 4c/	.	(>12ee\L	.	.
.	.	12dd\	.	.
.	.	12cc\J)	.	.
4g 4f 4B/	.	(>12gg\L	.	.
.	.	12ff\	.	.
.	.	12dd\J)	.	.
!!LO:LB:g=original
=8	=8	=8	=8	=8
4g 4e 4c/	.	12cc\L	.	.
.	.	12ee\	.	.
.	.	12dd\J	.	.
4g 4e 4c/	.	4cc\	.	.
=9||	=9||	=9||	=9||	=9||
*Xtuplet	*	*	*	*
(<12c/L	.	4gg 4ee 4cc\	1 3 5	p
12d/	.	.	.	.
12e/J)	.	.	.	.
(<12e/L	.	4gg 4ee 4cc\	.	.
12d/	.	.	.	.
12c/J)	.	.	.	.
=10	=10	=10	=10	=10
(<12d/L	.	4gg 4ff 4b\	1 4 5	.
12e/	.	.	.	.
12f/J)	.	.	.	.
(<12f/L	.	4gg 4ff 4b\	.	.
12e/	.	.	.	.
12d/J)	.	.	.	.
=11	=11	=11	=11	=11
(<12c/L	.	4gg 4ee 4cc\	.	.
12d/	.	.	.	.
12e/J)	.	.	.	.
(<12e/L	.	4gg 4ee 4cc\	.	.
12d/	.	.	.	.
12c/J)	.	.	.	.
=12	=12	=12	=12	=12
*	*above	*	*	*
(<12d/L	3	4gg 4ff 4b\	.	.
12c#X/	4	.	.	.
12e/J	2	.	.	.
4d/)	3	4gg 4ff 4b\	.	.
!!LO:LB:g=original
=13	=13	=13	=13	=13
(<12c/L	1	4gg 4ee 4cc\	.	.
12d/	.	.	.	.
12e/J)	.	.	.	.
(<12e/L	.	4gg 4ee 4cc\	.	.
12d/	.	.	.	.
12c/J)	.	.	.	.
=14	=14	=14	=14	=14
(<12d/L	.	4gg 4ff 4b\	.	.
12e/	.	.	.	.
12f/J)	.	.	.	.
(<12f/L	.	4gg 4ff 4b\	.	.
12e/	.	.	.	.
12d/J)	.	.	.	.
=15	=15	=15	=15	=15
(<12e/L	.	4gg 4ee 4cc\	.	.
12d/	.	.	.	.
12c/J)	.	.	.	.
(12g/L	.	4gg 4ff 4b\	.	.
12f/	.	.	.	.
12d/J)	.	.	.	.
=16	=16	=16	=16	=16
(<12c/L	.	4gg 4ee 4cc\	.	.
12e/	.	.	.	.
12d/J)	.	.	.	.
!	!	!LO:TX:i:b:t=V&colon; S&colon;	!	!
4c/	.	4gg 4ee 4cc\	.	.
!!LO:PB:g=original
=17||	=17||	=17||	=17||	=17||
!	!	!LO:TX:i:b:t=staccato	!	!LO:DY:b:rj
12c|</L	.	12cc|>\L	.	f
12d|</	.	12dd|>\	.	.
12e|</J	.	12ee|>\J	.	.
12e|</L	.	12ee|>\L	.	.
12d|</	.	12dd|>\	.	.
12c|</J	.	12cc|>\J	.	.
=18	=18	=18	=18	=18
12d|</L	.	12dd|>\L	.	.
12e|</	.	12ee|>\	.	.
12f|</J	.	12ff|>\J	.	.
12f|</L	.	12ff|>\L	.	.
12e|</	.	12ee|>\	.	.
12d|</J	.	12dd|>\J	.	.
=19	=19	=19	=19	=19
12c|</L	.	12cc|>\L	.	.
12d|</	.	12dd|>\	.	.
12e|</J	.	12ee|>\J	.	.
12e|</L	.	12ee|>\L	.	.
12d|</	.	12dd|>\	.	.
12c|</J	.	12cc|>\J	.	.
!!LO:LB:g=original
=20	=20	=20	=20	=20
12d/L	3	12dd\L	3	.
12c#X/	4	12cc#X\	2	.
12e/J	2	12ee\J	4	.
4d/	3	4dd\	3	.
=21	=21	=21	=21	=21
12cn/L	5	12ccn\L	1	.
12d/	.	12dd\	.	.
12e/J	.	12ee\J	.	.
12e/L	.	12ee\L	.	.
12d/	.	12dd\	.	.
12c/J	.	12cc\J	.	.
=22	=22	=22	=22	=22
12d/L	.	12dd\L	.	.
12e/	.	12ee\	.	.
12f/J	.	12ff\J	.	.
12f/L	.	12ff\L	.	.
12e/	.	12ee\	.	.
12d/J	.	12dd\J	.	.
!!LO:LB:g=original
=23	=23	=23	=23	=23
12e/L	.	12ee\L	.	.
12d/	.	12dd\	.	.
12c/J	.	12cc\J	.	.
12g/L	.	12gg\L	.	.
12f/	.	12ff\	.	.
12d/J	.	12dd\J	.	.
=24	=24	=24	=24	=24
12c/L	.	12cc\L	.	.
12e/	.	12ee\	.	.
12d/J	.	12dd\J	.	.
4c/	.	4cc\	.	.
==	==	==	==	==
*-	*-	*-	*-	*-
!!!system-decoration: {(s1,s2)}
!!!RDF**kern: | = vertical stroke
!!!RDF**kern: > = above
!!!RDF**kern: < = below
!!!EED: Antoni Szymański
!!!EEV: 2021-05-04
!!!ENC: Andrzej Gręziak
!!!END: 2021-04-10
